static/fa/svgs/solid/people-robbery.svg

<svg xmlns="http://www.w3.org/2000/svg" viewBox="0 0 576 512"><!--! Font Awesome Free 6.1.1 by @fontawesome - https://fontawesome.com License - https://fontawesome.com/license/free (Icons: CC BY 4.0, Fonts: SIL OFL 1.1, Code: MIT License) Copyright 2022 Fonticons, Inc.--><path d="M496.1 24.24C501.2 7.093 518.6-3.331 535.8.955 552.9 5.242 563.3 22.62 559 39.76l-8.7 34.87c-11 43.97-40.2 79.57-78.3 99.67V480c0 17.7-14.3 32-32 32s-32-14.3-32-32V352h-16v128c0 17.7-14.3 32-32 32s-32-14.3-32-32V174.3c-38.1-20.1-67.3-55.7-78.3-99.67l-9.6-34.87c-3.4-17.14 7-34.518 24.1-38.805C281.4-3.33 298.8 7.093 303 24.24l8.8 34.86c10.1 40.49 46.5 68 88.2 68s78.1-27.51 88.2-68l7.9-34.86zM352 47.1C352 21.49 373.5 0 400 0s48 21.49 48 47.1c0 27.41-21.5 48-48 48s-48-20.59-48-48zM32.01 48c0-26.51 21.49-48 48-48C106.5 0 128 21.49 128 48s-21.5 48-47.99 48c-26.51 0-48-21.49-48-48zm72.69 80c27.4 0 52.9 14 67.5 37.1l37.4 58.9H240c17.7 0 32 14.3 32 32s-14.3 32-32 32h-48c-11 0-21.1-5.6-27.9-14.9L152 252.7V480c0 17.7-14.3 32-32 32s-32-14.3-32-32V352H72v128c0 17.7-14.32 32-32 32-17.67 0-31.995-14.3-31.995-32V288.6L8 287.1v-96c0-34.4 28.65-64 64-64l32.7.9z"/></svg>

<svg xmlns="http://www.w3.org/2000/svg" viewBox="0 0 576 512"><!--! Font Awesome Free 6.1.1 by @fontawesome - https://fontawesome.com License - https://fontawesome.com/license/free (Icons: CC BY 4.0, Fonts: SIL OFL 1.1, Code: MIT License) Copyright 2022 Fonticons, Inc. --><path d="M496.1 24.24C501.2 7.093 518.6-3.331 535.8 .9552C552.9 5.242 563.3 22.62 559 39.76L550.3 74.63C539.3 118.6 510.1 154.2 472 174.3V480C472 497.7 457.7 512 440 512C422.3 512 408 497.7 408 480V352H392V480C392 497.7 377.7 512 360 512C342.3 512 328 497.7 328 480V174.3C289.9 154.2 260.7 118.6 249.7 74.63L240.1 39.76C236.7 22.62 247.1 5.242 264.2 .9552C281.4-3.331 298.8 7.093 303 24.24L311.8 59.1C321.9 99.59 358.3 127.1 400 127.1C441.7 127.1 478.1 99.59 488.2 59.1L496.1 24.24zM352 47.1C352 21.49 373.5-.0006 400-.0006C426.5-.0006 448 21.49 448 47.1C448 74.51 426.5 95.1 400 95.1C373.5 95.1 352 74.51 352 47.1V47.1zM32.01 48C32.01 21.49 53.5 0 80.01 0C106.5 0 128 21.49 128 48C128 74.51 106.5 96 80.01 96C53.5 96 32.01 74.51 32.01 48V48zM104.7 128C132.1 128 157.6 142 172.2 165.1L209.6 224H240C257.7 224 272 238.3 272 256C272 273.7 257.7 288 240 288H192C181 288 170.9 282.4 164.1 273.1L152 252.7V480C152 497.7 137.7 512 120 512C102.3 512 88 497.7 88 480V352H72V480C72 497.7 57.68 512 40 512C22.33 512 8.005 497.7 8.005 480V288.6L8 287.1V191.1C8 156.7 36.65 127.1 72 127.1L104.7 128z"/></svg>
